X:1
T:Title
%%score { ( 1 4 ) | ( 2 3 ) }
L:1/8
M:6/8
K:G
V:1 treble nm="Grand Piano"
V:4 treble 
V:2 bass 
V:3 bass 
V:1
 z6[Q:1/4=84] | [DB][Ec][DB] [B,G][CA][B,G] | [DF]3 [CE]2 [CE] | [Ec][Ac][Gc] [Fc][Ec][Fc] | %4
 [DB]3- [DB]2 D | [DB][DB][DB] [=Fd][Fc][FB] | [EB]3 [EA]2 G | F=F^F FGA | %8
[M:5/8] [B,G]-[B,G]- [B,G]3 |[M:1/8] d |[M:3/4] ed B[DG] [DA][DB] | [Ec]4 z2 | %12
 [^CB][CE] [CF][CG] [CA][CB] |[M:5/8] [DA]-[DA]- [DA]3 |[M:1/8] [FA] |[M:3/4] BA Gc BA | %16
 z2 z .e3[K:bass][K:treble] | [Gd][GB] [Gd][Fc] [FA][FB] |[M:5/8] G-G- G3 |] %19
V:2
 z3 z2 D | G,,D,G, G,,D,G, | C,E,G, C,E,G, | A,,E,A, D,F,A, | G,,B,,D, G,D,B,, | z G,G, z G,G, | %6
 C,E,^G, A,B,[CE] | [D,A,D][D,^G,D][D,A,D] [D,A,D][E,A,^C][F,A,=C] |[M:5/8] G,D,B,, G,,2 | %9
[M:1/8][K:treble] [G,B,G] |[M:3/4] [G,CG][G,B,G] [G,DG][K:bass][B,,G,] [A,,F,][G,,G,] | %11
 G,3 [G,D]2 [G,,G,] | [A,,G,][A,,G,] [A,,F,][A,,E,] [A,,F,][A,,G,] | %13
[M:5/8] [D,F,]-[D,F,]- [D,F,]3 |[M:1/8] [D,D] | %15
[M:3/4][K:treble] [G,DG][G,CF] [G,B,][A,DF] [B,DF][CDF] | [B,DG]3 [CG]2[K:bass] [^C,_B,] | %17
 [D,B,][D,D] [D,B,][D,A,] [D,C][D,D] |[M:5/8] [G,B,]-[G,B,]- [G,B,]3 |] %19
V:3
 x6 | x6 | x6 | x6 | x6 | G,,3 B,,3 | x6 | x6 |[M:5/8] x5 |[M:1/8][K:treble] x | %10
[M:3/4] x3[K:bass] x3 | C,2 z2 z2 | x6 |[M:5/8] x5 |[M:1/8] x |[M:3/4][K:treble] x6 | %16
 x5[K:bass] x | x6 |[M:5/8] x5 |] %19
V:4
 x6 | x6 | x6 | x6 | x6 | x6 | x6 | x6 |[M:5/8] x5 |[M:1/8] x |[M:3/4] x6 | z2 E, B2 [DB] | x6 | %13
[M:5/8] x5 |[M:1/8] x |[M:3/4] x6 | d4[K:bass] C,[K:treble][Ge] | x6 |[M:5/8] x5 |] %19

